X:1
T:Anna-Marie och Pelle (Hambo)
%O:Sweden
R:Hambo
Z:Bob Wyttenbach, 8/4/02 from handwritten copy in Buffalo Gap 2002 book
N:goes well with Karis Pers, below
M:3/4
L:1/8
%Q:1/4=132
K:B %Transposed from A
B2(uB>d) f>d|B2B4|e2(e>g) b>g|e2e4|
f2(f>g) a>g|f2(f>g) a>g|(f>g) (f>e) d>c|B2B4:|
